;FLAVOR:Marlin
;TIME:39863
;Filament used: 17.6049m
;Layer height: 0.12
;MINX:116.335
;MINY:116.335
;MINZ:0.12
;MAXX:183.665
;MAXY:183.665
;MAXZ:34.8
;Generated with Cura_SteamEngine 4.11.0
M140 S50
M105
M190 S50
M104 S200
M105
M109 S200
M82 ;absolute extrusion mode
M201 X500.00 Y500.00 Z100.00 E5000.00 ;Setup machine max acceleration
M203 X500.00 Y500.00 Z10.00 E50.00 ;Setup machine max feedrate
M204 P500.00 R1000.00 T500.00 ;Setup Print/Retract/Travel acceleration
M205 X8.00 Y8.00 Z0.40 E5.00 ;Setup Jerk
M220 S100 ;Reset Feedrate
M221 S100 ;Reset Flowrate

G28 ;Home
G29 ;Auto bed Level

G92 E0 ;Reset Extruder
G1 Z2.0 F3000 ;Move Z Axis up
G1 X10.1 Y20 Z0.28 F5000.0 ;Move to start position
G1 X10.1 Y200.0 Z0.28 F1500.0 E15 ;Draw the first line
G1 X10.4 Y200.0 Z0.28 F5000.0 ;Move to side a little
G1 X10.4 Y20 Z0.28 F1500.0 E30 ;Draw the second line
G92 E0 ;Reset Extruder
G1 Z2.0 F3000 ;Move Z Axis up

G92 E0
G92 E0
G1 F2700 E-5
;LAYER_COUNT:290
;LAYER:0
M107
;MESH:solar3.stl
G0 F6000 X180.4 Y180.4 Z0.12
;TYPE:WALL-INNER
G1 F2700 E0
G1 F1200 X119.6 Y180.4 E1.21333
G1 X119.6 Y119.6 E2.42666
G1 X180.4 Y119.6 E3.63999
G1 X180.4 Y180.4 E4.85332
G0 F6000 X180.8 Y180.8
G1 F1200 X119.2 Y180.8 E6.08261
G1 X119.2 Y119.2 E7.31191
G1 X180.8 Y119.2 E8.5412
G1 X180.8 Y180.8 E9.7705
G0 F6000 X181.2 Y181.2
G1 F1200 X118.8 Y181.2 E11.01576
G1 X118.8 Y118.8 E12.26102
G1 X181.2 Y118.8 E13.50628
G1 X181.2 Y181.2 E14.75154
G0 F6000 X181.6 Y181.6
G1 F1200 X118.4 Y181.6 E16.01276
G1 X118.4 Y118.4 E17.27398
G1 X181.6 Y118.4 E18.53521
G1 X181.6 Y181.6 E19.79643
G0 F6000 X182 Y182
G1 F1200 X118 Y182 E21.07362
G1 X118 Y118 E22.35081
G1 X182 Y118 E23.628
G1 X182 Y182 E24.90519
G0 F6000 X182.4 Y182.4
G1 F1200 X117.6 Y182.4 E26.19834
G1 X117.6 Y117.6 E27.4915
G1 X182.4 Y117.6 E28.78465
G1 X182.4 Y182.4 E30.07781
G0 F6000 X182.8 Y182.8
;TYPE:WALL-OUTER
G1 F1200 X117.2 Y182.8 E31.38692
G1 X117.2 Y117.2 E32.69604
G1 X182.8 Y117.2 E34.00516
G1 X182.8 Y182.8 E35.31428
G0 F6000 X182.53 Y182.53
G0 X180.29 Y180.01
G0 X180.01 Y180.01
;TYPE:SKIN
G1 F1200 X119.99 Y180.01 E36.51204
G1 X119.99 Y119.99 E37.70981
G1 X180.01 Y119.99 E38.90757
G1 X180.01 Y180.01 E40.10534
G1 F2700 E35.10534
G0 F6000 X180.29 Y180.01
G0 X180.29 Y120.452
G1 F2700 E40.10534
G0 F6000 X179.849 Y120.452
G1 F1200 X179.547 Y120.15 E40.11386
G0 F6000 X178.981 Y120.15
G1 F1200 X179.849 Y121.018 E40.13836
G0 F6000 X179.849 Y121.584
G1 F1200 X178.415 Y120.15 E40.17883
G0 F6000 X177.85 Y120.15
G1 F1200 X179.849 Y122.149 E40.23524
G0 F6000 X179.849 Y122.715
G1 F1200 X177.284 Y120.15 E40.30763
G0 F6000 X176.718 Y120.15
G1 F1200 X179.849 Y123.281 E40.396
G0 F6000 X179.849 Y123.846
G1 F1200 X176.153 Y120.15 E40.50031
G0 F6000 X175.587 Y120.15
G1 F1200 X179.849 Y124.412 E40.62059
G0 F6000 X179.849 Y124.978
G1 F1200 X175.021 Y120.15 E40.75685
G0 F6000 X174.455 Y120.15
G1 F1200 X179.849 Y125.543 E40.90906
G0 F6000 X179.849 Y126.109
G1 F1200 X173.89 Y120.15 E41.07724
G0 F6000 X173.324 Y120.15
G1 F1200 X179.849 Y126.675 E41.26139
G0 F6000 X179.849 Y127.241
G1 F1200 X172.758 Y120.15 E41.46151
G0 F6000 X172.193 Y120.15
G1 F1200 X179.849 Y127.806 E41.67758
G0 F6000 X179.849 Y128.372
G1 F1200 X171.627 Y120.15 E41.90962
G0 F6000 X171.061 Y120.15
G1 F1200 X179.849 Y128.938 E42.15764
G0 F6000 X179.849 Y129.503
G1 F1200 X170.496 Y120.15 E42.4216
G0 F6000 X169.93 Y120.15
G1 F1200 X179.849 Y130.069 E42.70154
G0 F6000 X179.849 Y130.635
G1 F1200 X169.364 Y120.15 E42.99745
G0 F6000 X168.799 Y120.15
G1 F1200 X179.849 Y131.2 E43.3093
G0 F6000 X179.849 Y131.766
G1 F1200 X168.233 Y120.15 E43.63713
G0 F6000 X167.667 Y120.15
G1 F1200 X179.849 Y132.332 E43.98093
G0 F6000 X179.849 Y132.897
G1 F1200 X167.102 Y120.15 E44.34068
G0 F6000 X166.536 Y120.15
G1 F1200 X179.849 Y133.463 E44.7164
G0 F6000 X179.849 Y134.029
G1 F1200 X165.97 Y120.15 E45.1081
G0 F6000 X165.405 Y120.15
G1 F1200 X179.849 Y134.594 E45.51574
G0 F6000 X179.849 Y135.16
G1 F1200 X164.839 Y120.15 E45.93935
G0 F6000 X164.273 Y120.15
G1 F1200 X179.849 Y135.726 E46.37894
G0 F6000 X179.849 Y136.292
G1 F1200 X163.707 Y120.15 E46.8345
G0 F6000 X163.142 Y120.15
G1 F1200 X179.849 Y136.857 E47.30601
G0 F6000 X179.849 Y137.423
G1 F1200 X162.576 Y120.15 E47.79349
G0 F6000 X162.01 Y120.15
G1 F1200 X179.849 Y137.989 E48.29695
G0 F6000 X179.849 Y138.554
G1 F1200 X161.445 Y120.15 E48.81635
G0 F6000 X160.879 Y120.15
G1 F1200 X179.849 Y139.12 E49.35172
G0 F6000 X179.849 Y139.686
G1 F1200 X160.313 Y120.15 E49.90307
G0 F6000 X159.748 Y120.15
G1 F1200 X179.849 Y140.251 E50.47036
G0 F6000 X179.849 Y140.817
G1 F1200 X159.182 Y120.15 E51.05363
G0 F6000 X158.616 Y120.15
G1 F1200 X179.849 Y141.383 E51.65287
G0 F6000 X179.849 Y141.948
G1 F1200 X158.051 Y120.15 E52.26806
G0 F6000 X157.485 Y120.15
G1 F1200 X179.849 Y142.514 E52.89922
G0 F6000 X179.849 Y143.08
G1 F1200 X156.919 Y120.15 E53.54635
G0 F6000 X156.354 Y120.15
G1 F1200 X179.849 Y143.645 E54.20943
G0 F6000 X179.849 Y144.211
G1 F1200 X155.788 Y120.15 E54.88849
G0 F6000 X155.222 Y120.15
G1 F1200 X179.849 Y144.777 E55.58351
G0 F6000 X179.849 Y145.342
G1 F1200 X154.656 Y120.15 E56.2945
G0 F6000 X154.091 Y120.15
G1 F1200 X179.849 Y145.908 E57.02145
G0 F6000 X179.849 Y146.474
G1 F1200 X153.525 Y120.15 E57.76437
G0 F6000 X152.959 Y120.15
G1 F1200 X179.849 Y147.04 E58.52326
G0 F6000 X179.849 Y147.605
G1 F1200 X152.394 Y120.15 E59.2981
G0 F6000 X151.828 Y120.15
G1 F1200 X179.849 Y148.171 E60.08891
G0 F6000 X179.849 Y148.737
G1 F1200 X151.262 Y120.15 E60.8957
G0 F6000 X150.697 Y120.15
G1 F1200 X179.849 Y149.302 E61.71843
G0 F6000 X179.849 Y149.868
G1 F1200 X150.131 Y120.15 E62.55714
G0 F6000 X149.565 Y120.15
G1 F1200 X179.849 Y150.434 E63.41182
G0 F6000 X179.849 Y150.999
G1 F1200 X149 Y120.15 E64.28244
G0 F6000 X148.434 Y120.15
G1 F1200 X179.849 Y151.565 E65.16904
G0 F6000 X179.849 Y152.131
G1 F1200 X147.868 Y120.15 E66.07162
G0 F6000 X147.303 Y120.15
G1 F1200 X179.849 Y152.696 E66.99013
G0 F6000 X179.849 Y153.262
G1 F1200 X146.737 Y120.15 E67.92463
G0 F6000 X146.171 Y120.15
G1 F1200 X179.849 Y153.828 E68.87509
G0 F6000 X179.849 Y154.393
G1 F1200 X145.606 Y120.15 E69.8415
G0 F6000 X145.04 Y120.15
G1 F1200 X179.849 Y154.959 E70.82389
G0 F6000 X179.849 Y155.525
G1 F1200 X144.474 Y120.15 E71.82225
G0 F6000 X143.908 Y120.15
G1 F1200 X179.849 Y156.09 E72.83657
G0 F6000 X179.849 Y156.656
G1 F1200 X143.343 Y120.15 E73.86684
G0 F6000 X142.777 Y120.15
G1 F1200 X179.849 Y157.222 E74.9131
G0 F6000 X179.849 Y157.788
G1 F1200 X142.211 Y120.15 E75.97532
G0 F6000 X141.646 Y120.15
G1 F1200 X179.849 Y158.353 E77.05349
G0 F6000 X179.849 Y158.919
G1 F1200 X141.08 Y120.15 E78.14764
G0 F6000 X140.514 Y120.15
G1 F1200 X179.849 Y159.485 E79.25776
G0 F6000 X179.849 Y160.05
G1 F1200 X139.949 Y120.15 E80.38382
G0 F6000 X139.383 Y120.15
G1 F1200 X179.849 Y160.616 E81.52586
G0 F6000 X179.849 Y161.182
G1 F1200 X138.817 Y120.15 E82.68387
G0 F6000 X138.252 Y120.15
G1 F1200 X179.849 Y161.747 E83.85783
G0 F6000 X179.849 Y162.313
G1 F1200 X137.686 Y120.15 E85.04776
G0 F6000 X137.12 Y120.15
G1 F1200 X179.849 Y162.879 E86.25366
G0 F6000 X179.849 Y163.444
G1 F1200 X136.555 Y120.15 E87.47551
G0 F6000 X135.989 Y120.15
G1 F1200 X179.849 Y164.01 E88.71334
G0 F6000 X179.849 Y164.576
G1 F1200 X135.423 Y120.15 E89.96714
G0 F6000 X134.857 Y120.15
G1 F1200 X179.849 Y165.141 E91.23689
G0 F6000 X179.849 Y165.707
G1 F1200 X134.292 Y120.15 E92.52261
G0 F6000 X133.726 Y120.15
G1 F1200 X179.849 Y166.273 E93.8243
G0 F6000 X179.849 Y166.839
G1 F1200 X133.16 Y120.15 E95.14196
G0 F6000 X132.595 Y120.15
G1 F1200 X179.849 Y167.404 E96.47557
G0 F6000 X179.849 Y167.97
G1 F1200 X132.029 Y120.15 E97.82516
G0 F6000 X131.463 Y120.15
G1 F1200 X179.849 Y168.536 E99.19072
G0 F6000 X179.849 Y169.101
G1 F1200 X130.898 Y120.15 E100.57222
G0 F6000 X130.332 Y120.15
G1 F1200 X179.849 Y169.667 E101.9697
G0 F6000 X179.849 Y170.233
G1 F1200 X129.766 Y120.15 E103.38315
G0 F6000 X129.201 Y120.15
G1 F1200 X179.849 Y170.798 E104.81254
G0 F6000 X179.849 Y171.364
G1 F1200 X128.635 Y120.15 E106.25791
G0 F6000 X128.069 Y120.15
G1 F1200 X179.849 Y171.93 E107.71926
G0 F6000 X179.849 Y172.495
G1 F1200 X127.504 Y120.15 E109.19654
G0 F6000 X126.938 Y120.15
G1 F1200 X179.849 Y173.061 E110.68981
G0 F6000 X179.849 Y173.627
G1 F1200 X126.372 Y120.15 E112.19904
G0 F6000 X125.807 Y120.15
G1 F1200 X179.849 Y174.192 E113.72423
G0 F6000 X179.849 Y174.758
G1 F1200 X125.241 Y120.15 E115.26538
G0 F6000 X124.675 Y120.15
G1 F1200 X179.849 Y175.324 E116.82251
G0 F6000 X179.849 Y175.889
G1 F1200 X124.109 Y120.15 E118.3956
G0 F6000 X123.544 Y120.15
G1 F1200 X179.849 Y176.455 E119.98465
G0 F6000 X179.849 Y177.021
G1 F1200 X122.978 Y120.15 E121.58967
G0 F6000 X122.412 Y120.15
G1 F1200 X179.849 Y177.587 E123.21067
G0 F6000 X179.849 Y178.152
G1 F1200 X121.847 Y120.15 E124.84761
G0 F6000 X121.281 Y120.15
G1 F1200 X179.849 Y178.718 E126.50052
G0 F6000 X179.849 Y179.284
G1 F1200 X120.715 Y120.15 E128.16941
G0 F6000 X120.149 Y120.149
G1 F1200 X179.849 Y179.849 E129.85428
G0 F6000 X179.284 Y179.849
G1 F1200 X120.149 Y120.715 E131.52318
G0 F6000 X120.149 Y121.28
G1 F1200 X178.718 Y179.849 E133.17612
G0 F6000 X178.152 Y179.849
G1 F1200 X120.149 Y121.846 E134.81309
G0 F6000 X120.149 Y122.412
G1 F1200 X177.587 Y179.849 E136.4341
G0 F6000 X177.021 Y179.849
G1 F1200 X120.149 Y122.977 E138.03915
G0 F6000 X120.149 Y123.543
G1 F1200 X176.455 Y179.849 E139.62823
G0 F6000 X175.889 Y179.849
G1 F1200 X120.149 Y124.109 E141.20133
G0 F6000 X120.149 Y124.674
G1 F1200 X175.324 Y179.849 E142.75849
G0 F6000 X174.758 Y179.849
G1 F1200 X120.149 Y125.24 E144.29968
G0 F6000 X120.149 Y125.806
G1 F1200 X174.192 Y179.849 E145.82489
G0 F6000 X173.627 Y179.849
G1 F1200 X120.149 Y126.372 E147.33414
G0 F6000 X120.149 Y126.937
G1 F1200 X173.061 Y179.849 E148.82743
G0 F6000 X172.495 Y179.849
G1 F1200 X120.149 Y127.503 E150.30475
G0 F6000 X120.149 Y128.069
G1 F1200 X171.93 Y179.849 E151.7661
G0 F6000 X171.364 Y179.849
G1 F1200 X120.149 Y128.634 E153.2115
G0 F6000 X120.149 Y129.2
G1 F1200 X170.798 Y179.849 E154.64093
G0 F6000 X170.233 Y179.849
G1 F1200 X120.149 Y129.766 E156.05439
G0 F6000 X120.149 Y130.331
G1 F1200 X169.667 Y179.849 E157.45189
G0 F6000 X169.101 Y179.849
G1 F1200 X120.149 Y130.897 E158.83343
G0 F6000 X120.149 Y131.463
G1 F1200 X168.536 Y179.849 E160.199
G0 F6000 X167.97 Y179.849
G1 F1200 X120.149 Y132.028 E161.54861
G0 F6000 X120.149 Y132.594
G1 F1200 X167.404 Y179.849 E162.88225
G0 F6000 X166.839 Y179.849
G1 F1200 X120.149 Y133.16 E164.19993
G0 F6000 X120.149 Y133.725
G1 F1200 X166.273 Y179.849 E165.50165
G0 F6000 X165.707 Y179.849
G1 F1200 X120.149 Y134.291 E166.78739
G0 F6000 X120.149 Y134.857
G1 F1200 X165.141 Y179.849 E168.05716
G0 F6000 X164.576 Y179.849
G1 F1200 X120.149 Y135.422 E169.31099
G0 F6000 X120.149 Y135.988
G1 F1200 X164.01 Y179.849 E170.54884
G0 F6000 X163.444 Y179.849
G1 F1200 X120.149 Y136.554 E171.77072
G0 F6000 X120.149 Y137.12
G1 F1200 X162.879 Y179.849 E172.97664
G0 F6000 X162.313 Y179.849
G1 F1200 X120.149 Y137.685 E174.1666
G0 F6000 X120.149 Y138.251
G1 F1200 X161.747 Y179.849 E175.34058
G0 F6000 X161.182 Y179.849
G1 F1200 X120.149 Y138.817 E176.49861
G0 F6000 X120.149 Y139.382
G1 F1200 X160.616 Y179.849 E177.64067
G0 F6000 X160.05 Y179.849
G1 F1200 X120.149 Y139.948 E178.76677
G0 F6000 X120.149 Y140.514
G1 F1200 X159.485 Y179.849 E179.8769
G0 F6000 X158.919 Y179.849
G1 F1200 X120.149 Y141.079 E180.97107
G0 F6000 X120.149 Y141.645
G1 F1200 X158.353 Y179.849 E182.04927
G0 F6000 X157.788 Y179.849
G1 F1200 X120.149 Y142.211 E183.11151
G0 F6000 X120.149 Y142.776
G1 F1200 X157.222 Y179.849 E184.15779
G0 F6000 X156.656 Y179.849
G1 F1200 X120.149 Y143.342 E185.1881
G0 F6000 X120.149 Y143.908
G1 F1200 X156.09 Y179.849 E186.20243
G0 F6000 X155.525 Y179.849
G1 F1200 X120.149 Y144.473 E187.20082
G0 F6000 X120.149 Y145.039
G1 F1200 X154.959 Y179.849 E188.18323
G0 F6000 X154.393 Y179.849
G1 F1200 X120.149 Y145.605 E189.14967
G0 F6000 X120.149 Y146.17
G1 F1200 X153.828 Y179.849 E190.10016
G0 F6000 X153.262 Y179.849
G1 F1200 X120.149 Y146.736 E191.03469
G0 F6000 X120.149 Y147.302
G1 F1200 X152.696 Y179.849 E191.95323
G0 F6000 X152.131 Y179.849
G1 F1200 X120.149 Y147.868 E192.85582
G0 F6000 X120.149 Y148.433
G1 F1200 X151.565 Y179.849 E193.74245
G0 F6000 X150.999 Y179.849
G1 F1200 X120.149 Y148.999 E194.6131
G0 F6000 X120.149 Y149.565
G1 F1200 X150.434 Y179.849 E195.46779
G0 F6000 X149.868 Y179.849
G1 F1200 X120.149 Y150.13 E196.30653
G0 F6000 X120.149 Y150.696
G1 F1200 X149.302 Y179.849 E197.12929
G0 F6000 X148.737 Y179.849
G1 F1200 X120.149 Y151.262 E197.93609
G0 F6000 X120.149 Y151.827
G1 F1200 X148.171 Y179.849 E198.72693
G0 F6000 X147.605 Y179.849
G1 F1200 X120.149 Y152.393 E199.5018
G0 F6000 X120.149 Y152.959
G1 F1200 X147.04 Y179.849 E200.26071
G0 F6000 X146.474 Y179.849
G1 F1200 X120.149 Y153.524 E201.00366
G0 F6000 X120.149 Y154.09
G1 F1200 X145.908 Y179.849 E201.73063
G0 F6000 X145.342 Y179.849
G1 F1200 X120.149 Y154.656 E202.44163
G0 F6000 X120.149 Y155.221
G1 F1200 X144.777 Y179.849 E203.13669
G0 F6000 X144.211 Y179.849
G1 F1200 X120.149 Y155.787 E203.81577
G0 F6000 X120.149 Y156.353
G1 F1200 X143.645 Y179.849 E204.47888
G0 F6000 X143.08 Y179.849
G1 F1200 X120.149 Y156.919 E205.12602
G0 F6000 X120.149 Y157.484
G1 F1200 X142.514 Y179.849 E205.75721
G0 F6000 X141.948 Y179.849
G1 F1200 X120.149 Y158.05 E206.37243
G0 F6000 X120.149 Y158.616
G1 F1200 X141.383 Y179.849 E206.97168
G0 F6000 X140.817 Y179.849
G1 F1200 X120.149 Y159.181 E207.55498
G0 F6000 X120.149 Y159.747
G1 F1200 X140.251 Y179.849 E208.1223
G0 F6000 X139.686 Y179.849
G1 F1200 X120.149 Y160.313 E208.67366
G0 F6000 X120.149 Y160.878
G1 F1200 X139.12 Y179.849 E209.20907
G0 F6000 X138.554 Y179.849
G1 F1200 X120.149 Y161.444 E209.72849
G0 F6000 X120.149 Y162.01
G1 F1200 X137.989 Y179.849 E210.23196
G0 F6000 X137.423 Y179.849
G1 F1200 X120.149 Y162.575 E210.71947
G0 F6000 X120.149 Y163.141
G1 F1200 X136.857 Y179.849 E211.19101
G0 F6000 X136.292 Y179.849
G1 F1200 X120.149 Y163.707 E211.64658
G0 F6000 X120.149 Y164.272
G1 F1200 X135.726 Y179.849 E212.0862
G0 F6000 X135.16 Y179.849
G1 F1200 X120.149 Y164.838 E212.50984
G0 F6000 X120.149 Y165.404
G1 F1200 X134.594 Y179.849 E212.91751
G0 F6000 X134.029 Y179.849
G1 F1200 X120.149 Y165.969 E213.30924
G0 F6000 X120.149 Y166.535
G1 F1200 X133.463 Y179.849 E213.68499
G0 F6000 X132.897 Y179.849
G1 F1200 X120.149 Y167.101 E214.04476
G0 F6000 X120.149 Y167.667
G1 F1200 X132.332 Y179.849 E214.38858
G0 F6000 X131.766 Y179.849
G1 F1200 X120.149 Y168.232 E214.71644
G0 F6000 X120.149 Y168.798
G1 F1200 X131.2 Y179.849 E215.02832
G0 F6000 X130.635 Y179.849
G1 F1200 X120.149 Y169.364 E215.32424
G0 F6000 X120.149 Y169.929
G1 F1200 X130.069 Y179.849 E215.60421
G0 F6000 X129.503 Y179.849
G1 F1200 X120.149 Y170.495 E215.8682
G0 F6000 X120.149 Y171.061
G1 F1200 X128.938 Y179.849 E216.11623
G0 F6000 X128.372 Y179.849
G1 F1200 X120.149 Y171.626 E216.3483
G0 F6000 X120.149 Y172.192
G1 F1200 X127.806 Y179.849 E216.5644
G0 F6000 X127.241 Y179.849
G1 F1200 X120.149 Y172.758 E216.76453
G0 F6000 X120.149 Y173.323
G1 F1200 X126.675 Y179.849 E216.94871
G0 F6000 X126.109 Y179.849
G1 F1200 X120.149 Y173.889 E217.11691
G0 F6000 X120.149 Y174.455
G1 F1200 X125.543 Y179.849 E217.26914
G0 F6000 X124.978 Y179.849
G1 F1200 X120.149 Y175.02 E217.40543
G0 F6000 X120.149 Y175.586
G1 F1200 X124.412 Y179.849 E217.52574
G0 F6000 X123.846 Y179.849
G1 F1200 X120.149 Y176.152 E217.63008
G0 F6000 X120.149 Y176.718
G1 F1200 X123.281 Y179.849 E217.71846
G0 F6000 X122.715 Y179.849
G1 F1200 X120.149 Y177.283 E217.79087
G0 F6000 X120.149 Y177.849
G1 F1200 X122.149 Y179.849 E217.84732
G0 F6000 X121.584 Y179.849
G1 F1200 X120.149 Y178.415 E217.8878
G0 F6000 X120.149 Y178.98
G1 F1200 X121.018 Y179.849 E217.91233
G0 F6000 X120.452 Y179.849
G1 F1200 X120.149 Y179.546 E217.92088
G0 F6000 X119.41 Y179.546
G1 F2700 E212.92088
;MESH:NONMESH
G0 F300 X119.41 Y179.546 Z0.24
G0 F6000 X119.782 Y180.218
G0 X180.4 Y180.4
;TIME_ELAPSED:569.159708
;LAYER:1
M106 S85
;TYPE:WALL-INNER
;MESH:solar3.stl
G1 F2700 E217.92088
G1 F1350 X119.6 Y180.4 E219.13421
G1 X119.6 Y119.6 E220.34754
